svg/SJJB-OpenStreetMapIcons/place_of_worship/hindu3.svg

<?xml version="1.0" encoding="UTF-8" standalone="no"?>
<!-- Created with Inkscape (http://www.inkscape.org/) -->
<svg
   xmlns:dc="http://purl.org/dc/elements/1.1/"
   xmlns:cc="http://creativecommons.org/ns#"
   xmlns:rdf="http://www.w3.org/1999/02/22-rdf-syntax-ns#"
   xmlns:svg="http://www.w3.org/2000/svg"
   xmlns="http://www.w3.org/2000/svg"
   xmlns:sodipodi="http://sodipodi.sourceforge.net/DTD/sodipodi-0.dtd"
   xmlns:inkscape="http://www.inkscape.org/namespaces/inkscape"
   version="1.0"
   width="580"
   height="580"
   id="svg2"
   sodipodi:version="0.32"
   inkscape:version="0.46"
   sodipodi:docname="place_of_worship_hindu3.svg"
   sodipodi:docbase="s:\Data\FacilityIcons"
   inkscape:output_extension="org.inkscape.output.svg.inkscape">
  <metadata
     id="metadata2975">
    <rdf:RDF>
      <cc:Work
         rdf:about="">
        <dc:format>image/svg+xml</dc:format>
        <dc:type
           rdf:resource="http://purl.org/dc/dcmitype/StillImage" />
        <cc:license
           rdf:resource="http://web.resource.org/cc/PublicDomain" />
        <dc:language>en</dc:language>
      </cc:Work>
    </rdf:RDF>
  </metadata>
  <sodipodi:namedview
     inkscape:window-height="1003"
     inkscape:window-width="1400"
     inkscape:pageshadow="2"
     inkscape:pageopacity="0.0"
     guidetolerance="10.0"
     gridtolerance="10.0"
     objecttolerance="10.0"
     borderopacity="1.0"
     bordercolor="#666666"
     pagecolor="#ffffff"
     id="base"
     inkscape:zoom="0.65172414"
     inkscape:cx="-57.954519"
     inkscape:cy="172.10413"
     inkscape:window-x="0"
     inkscape:window-y="20"
     inkscape:current-layer="svg2"
     showgrid="false" />
  <defs
     id="defs4">
    <inkscape:perspective
       sodipodi:type="inkscape:persp3d"
       inkscape:vp_x="0 : 290 : 1"
       inkscape:vp_y="0 : 1000 : 0"
       inkscape:vp_z="580 : 290 : 1"
       inkscape:persp3d-origin="290 : 193.33333 : 1"
       id="perspective2441" />
    <inkscape:perspective
       id="perspective2466"
       inkscape:persp3d-origin="372.04724 : 350.78739 : 1"
       inkscape:vp_z="744.09448 : 526.18109 : 1"
       inkscape:vp_y="0 : 1000 : 0"
       inkscape:vp_x="0 : 526.18109 : 1"
       sodipodi:type="inkscape:persp3d" />
    <inkscape:perspective
       id="perspective3333"
       inkscape:persp3d-origin="372.04724 : 350.78739 : 1"
       inkscape:vp_z="744.09448 : 526.18109 : 1"
       inkscape:vp_y="0 : 1000 : 0"
       inkscape:vp_x="0 : 526.18109 : 1"
       sodipodi:type="inkscape:persp3d" />
    <inkscape:perspective
       id="perspective3401"
       inkscape:persp3d-origin="372.04724 : 350.78739 : 1"
       inkscape:vp_z="744.09448 : 526.18109 : 1"
       inkscape:vp_y="0 : 1000 : 0"
       inkscape:vp_x="0 : 526.18109 : 1"
       sodipodi:type="inkscape:persp3d" />
    <inkscape:perspective
       id="perspective3464"
       inkscape:persp3d-origin="372.04724 : 350.78739 : 1"
       inkscape:vp_z="744.09448 : 526.18109 : 1"
       inkscape:vp_y="0 : 1000 : 0"
       inkscape:vp_x="0 : 526.18109 : 1"
       sodipodi:type="inkscape:persp3d" />
    <inkscape:perspective
       id="perspective3581"
       inkscape:persp3d-origin="225 : 150 : 1"
       inkscape:vp_z="450 : 225 : 1"
       inkscape:vp_y="0 : 1000 : 0"
       inkscape:vp_x="0 : 225 : 1"
       sodipodi:type="inkscape:persp3d" />
    <inkscape:perspective
       id="perspective4312"
       inkscape:persp3d-origin="225 : 150 : 1"
       inkscape:vp_z="450 : 225 : 1"
       inkscape:vp_y="0 : 1000 : 0"
       inkscape:vp_x="0 : 225 : 1"
       sodipodi:type="inkscape:persp3d" />
  </defs>
  <g
     id="g1327">
    <path
       d="M 66.275,1.768 C 24.94,1.768 1.704,23.139 1.704,66.804 L 1.704,516.927 C 1.704,557.771 22.599,579.156 63.896,579.156 L 515.92,579.156 C 557.227,579.156 578.149,558.841 578.149,516.927 L 578.149,66.804 C 578.149,24.203 557.227,1.768 514.628,1.768 C 514.624,1.768 66.133,1.625 66.275,1.768 z "
       style="fill:#111;stroke:#eee;stroke-width:3.40799999"
       id="path1329" />
  </g>
  <path
     sodipodi:nodetypes="csssssscccsssssssssssssssssssssscccsccsscccssccsssssssssccscccsccc"
     id="path1873"
     d="M 221.08703,568.0161 C 190.16635,559.94726 163.43647,543.79443 138.30145,517.98886 C 98.26543,476.88474 76.398263,432.89487 63.449344,367.40976 C 56.063801,330.05967 56.051249,329.1506 62.852621,324.17729 C 76.785317,313.98945 82.292216,317.66085 86.966006,340.25351 C 111.32366,457.99562 187.62788,534.53757 261.85752,515.68991 C 283.99595,510.06873 305.11627,488.81562 311.4697,465.76576 C 319.66186,436.04503 305.22991,384.6863 280.14337,354.28522 L 271.22812,343.48132 L 256.1577,359.01033 C 240.22048,375.43256 220.57971,388.96835 212.6546,388.99126 C 207.88938,389.00505 186.1331,344.99998 186.1331,335.34794 C 186.1331,332.52128 196.4813,325.47753 209.12911,319.69524 C 244.62274,303.46832 259.72029,285.1911 259.72029,258.44916 C 259.72029,241.0458 256.65225,234.97702 244.7397,228.8168 C 229.40087,220.88478 203.8607,222.24135 172.90676,232.63225 C 157.83593,237.6914 144.64299,241.83067 143.58914,241.83067 C 140.8766,241.83067 119.90465,194.37006 119.90465,188.23147 C 119.90465,177.70066 142.64994,170.50335 180.61408,169.02113 C 215.43343,167.66169 218.48986,168.15362 237.57687,178.18951 C 261.56493,190.80237 279.39884,212.64095 287.22114,238.9815 C 293.60104,260.4649 294.51923,288.43148 289.29575,302.17027 C 283.73258,316.80245 290.80792,316.91615 309.69658,302.4981 C 330.33498,286.74448 344.29545,280.57079 366.9694,277.17062 C 383.31841,274.71895 384.12511,274.00562 388.59207,258.05116 C 399.25401,219.9705 427.49428,197.49207 465.34835,196.95533 C 493.60635,196.55465 509.49308,202.36465 525.79831,219.06272 C 547.32327,241.10627 555.03217,267.71654 556.9099,326.45592 C 559.24063,399.36698 549.44861,438.77574 520.93111,471.25543 C 496.34978,499.252 457.68186,509.59953 427.51262,496.25425 C 402.05196,484.99179 395.33583,467.51611 392.4135,404.92527 C 390.53624,364.7175 388.97188,355.15434 383.2349,348.81507 C 374.35786,339.00602 368.90597,339.23231 344.90313,350.40622 L 325.22429,359.56725 L 333.12122,371.52663 C 384.42395,449.221 373.8005,533.82286 309.15074,562.42052 C 288.7908,571.42667 244.85488,574.21839 221.08703,568.0161 z M 486.99678,436.83076 C 513.52202,420.65826 531.08643,375.2 527.23241,332.69732 C 524.7133,304.91596 508.54044,272.16911 491.89564,261.1473 C 469.36133,246.22558 438.40787,251.13754 418.11789,272.85491 L 409.10472,282.50219 L 416.17663,294.36081 C 422.06111,304.22825 423.44469,314.8687 424.4166,357.73048 C 425.78127,417.91216 426.34183,421.46402 436.51661,434.39919 C 446.21533,446.7291 468.96476,447.8249 486.99678,436.83076 z M 303.89242,187.86181 C 294.79692,184.67962 280.45714,177.33005 272.02632,171.52946 C 255.1922,159.94731 222.9267,124.86184 222.9267,118.13865 C 222.9267,115.80708 227.1651,111.12233 232.34535,107.72809 C 241.56518,101.68702 242.07864,101.84097 256.66753,115.02117 C 276.00021,132.48708 293.81735,139.76521 317.36987,139.81759 C 338.47239,139.8645 363.88605,127.63389 376.80034,111.21601 C 380.78099,106.15546 385.27679,102.01504 386.79105,102.01504 C 389.71991,102.01504 428.86515,134.22347 433.64508,140.56621 C 438.25307,146.68079 400.08537,178.54725 378.46491,186.63654 C 355.08286,195.38487 326.72661,195.85078 303.89242,187.86181 z M 305.18631,105.57437 C 295.35733,95.224592 286.85394,85.493725 286.28985,83.950192 C 285.72574,82.406671 293.74169,73.214046 304.10311,63.522172 L 322.94201,45.900583 L 342.53743,65.252613 C 353.31493,75.896224 361.24565,86.452351 360.16123,88.710626 C 359.07684,90.968937 350.2848,99.92111 340.62339,108.6044 L 323.05717,124.39211 L 305.18631,105.57437 z"
     style="opacity:0.25;fill:#ffffff" />
  <path
     style="opacity:1;fill:#ffffff"
     d="M 181.08703,528.0161 C 150.16635,519.94726 123.43647,503.79443 98.30145,477.98886 C 58.265425,436.88474 36.398263,392.89487 23.449344,327.40976 C 16.063801,290.05967 16.051249,289.1506 22.852621,284.17729 C 36.785317,273.98945 42.292216,277.66085 46.966006,300.25351 C 71.323656,417.99562 147.62788,494.53757 221.85752,475.68991 C 243.99595,470.06873 265.11627,448.81562 271.4697,425.76576 C 279.66186,396.04503 265.22991,344.6863 240.14337,314.28522 L 231.22812,303.48132 L 216.1577,319.01033 C 200.22048,335.43256 180.57971,348.96835 172.6546,348.99126 C 167.88938,349.00505 146.1331,304.99998 146.1331,295.34794 C 146.1331,292.52128 156.4813,285.47753 169.12911,279.69524 C 204.62274,263.46832 219.72029,245.1911 219.72029,218.44916 C 219.72029,201.0458 216.65225,194.97702 204.7397,188.8168 C 189.40087,180.88478 163.8607,182.24135 132.90676,192.63225 C 117.83593,197.6914 104.64299,201.83067 103.58914,201.83067 C 100.8766,201.83067 79.90465,154.37006 79.90465,148.23147 C 79.90465,137.70066 102.64994,130.50335 140.61408,129.02113 C 175.43343,127.66169 178.48986,128.15362 197.57687,138.18951 C 221.56493,150.80237 239.39884,172.64095 247.22114,198.9815 C 253.60104,220.4649 254.51923,248.43148 249.29575,262.17027 C 243.73258,276.80245 250.80792,276.91615 269.69658,262.4981 C 290.33498,246.74448 304.29545,240.57079 326.9694,237.17062 C 343.31841,234.71895 344.12511,234.00562 348.59207,218.05116 C 359.25401,179.9705 387.49428,157.49207 425.34835,156.95533 C 453.60635,156.55465 469.49308,162.36465 485.79831,179.06272 C 507.32327,201.10627 515.03217,227.71654 516.9099,286.45592 C 519.24063,359.36698 509.44861,398.77574 480.93111,431.25543 C 456.34978,459.252 417.68186,469.59953 387.51262,456.25425 C 362.05196,444.99179 355.33583,427.51611 352.4135,364.92527 C 350.53624,324.7175 348.97188,315.15434 343.2349,308.81507 C 334.35786,299.00602 328.90597,299.23231 304.90313,310.40622 L 285.22429,319.56725 L 293.12122,331.52663 C 344.42395,409.221 333.8005,493.82286 269.15074,522.42052 C 248.7908,531.42667 204.85488,534.21839 181.08703,528.0161 z M 446.99678,396.83076 C 473.52202,380.65826 491.08643,335.2 487.23241,292.69732 C 484.7133,264.91596 468.54044,232.16911 451.89564,221.1473 C 429.36133,206.22558 398.40787,211.13754 378.11789,232.85491 L 369.10472,242.50219 L 376.17663,254.36081 C 382.06111,264.22825 383.44469,274.8687 384.4166,317.73048 C 385.78127,377.91216 386.34183,381.46402 396.51661,394.39919 C 406.21533,406.7291 428.96476,407.8249 446.99678,396.83076 z M 263.89242,147.86181 C 254.79692,144.67962 240.45714,137.33005 232.02632,131.52946 C 215.1922,119.94731 182.9267,84.86184 182.9267,78.138655 C 182.9267,75.807079 187.1651,71.122327 192.34535,67.728087 C 201.56518,61.687021 202.07864,61.840968 216.66753,75.02117 C 236.00021,92.48708 253.81735,99.76521 277.36987,99.81759 C 298.47239,99.8645 323.88605,87.63389 336.80034,71.216013 C 340.78099,66.155456 345.27679,62.01504 346.79105,62.01504 C 349.71991,62.01504 388.86515,94.22347 393.64508,100.56621 C 398.25307,106.68079 360.08537,138.54725 338.46491,146.63654 C 315.08286,155.38487 286.72661,155.85078 263.89242,147.86181 z M 265.18631,65.574369 C 255.35733,55.224592 246.85394,45.493725 246.28985,43.950192 C 245.72574,42.406671 253.74169,33.214046 264.10311,23.522172 L 282.94201,5.900583 L 302.53743,25.252613 C 313.31493,35.896224 321.24565,46.452351 320.16123,48.710626 C 319.07684,50.968937 310.2848,59.92111 300.62339,68.604405 L 283.05717,84.39211 L 265.18631,65.574369 z"
     id="path3603"
     sodipodi:nodetypes="csssssscccsssssssssssssssssssssscccsccsscccssccsssssssssccscccsccc" />
</svg>

<svg xmlns="http://www.w3.org/2000/svg" viewBox="0 0 580 580"><path d="m66.28 1.768c-41.34 0-64.57 21.371-64.57 65.04v450.12c0 40.844 20.895 62.23 62.19 62.23h452.02c41.31 0 62.23-20.315 62.23-62.23v-450.12c0-42.601-20.922-65.04-63.52-65.04-.004 0-448.5-.143-448.35 0z" fill="#111" stroke="#eee" stroke-width="3.408"/><g fill="#fff"><path d="m221.09 568.02c-30.921-8.07-57.651-24.22-82.79-50.03-40.04-41.1-61.903-85.09-74.852-150.58-7.386-37.35-7.398-38.26-.597-43.23 13.933-10.188 19.44-6.516 24.11 16.08 24.358 117.74 100.66 194.28 174.89 175.44 22.14-5.621 43.26-26.874 49.612-49.924 8.192-29.721-6.24-81.08-31.33-111.48l-8.915-10.804-15.07 15.529c-15.937 16.422-35.578 29.958-43.503 29.981-4.765.014-26.521-43.991-26.521-53.643 0-2.827 10.348-9.87 22.996-15.653 35.494-16.227 50.591-34.504 50.591-61.25 0-17.403-3.068-23.472-14.981-29.632-15.339-7.932-40.879-6.575-71.833 3.815-15.07 5.059-28.26 9.198-29.32 9.198-2.713 0-23.684-47.46-23.684-53.599 0-10.531 22.745-17.728 60.709-19.21 34.819-1.359 37.876-.868 56.963 9.168 23.988 12.613 41.822 34.451 49.644 60.792 6.38 21.483 7.298 49.45 2.075 63.19-5.563 14.632 1.512 14.746 20.401.328 20.638-15.754 34.599-21.927 57.27-25.327 16.349-2.452 17.16-3.165 21.623-19.12 10.662-38.08 38.902-60.56 76.76-61.1 28.26-.401 44.14 5.409 60.45 22.11 21.525 22.04 29.23 48.654 31.11 107.39 2.331 72.911-7.461 112.32-35.979 144.8-24.581 27.997-63.25 38.34-93.42 24.999-25.461-11.262-32.18-28.738-35.1-91.33-1.877-40.21-3.442-49.771-9.179-56.11-8.877-9.809-14.329-9.583-38.33 1.591l-19.679 9.161 7.897 11.959c51.3 77.69 40.679 162.3-23.97 190.89-20.36 9.01-64.3 11.798-88.06 5.596m265.91-131.19c26.525-16.17 44.09-61.63 40.24-104.13-2.519-27.781-18.692-60.53-35.34-71.55-22.534-14.922-53.49-10.01-73.78 11.708l-9.01 9.647 7.07 11.859c5.884 9.867 7.268 20.508 8.24 63.37 1.365 60.18 1.925 63.734 12.1 76.67 9.699 12.33 32.448 13.426 50.48 2.432m-183.1-248.97c-9.1-3.182-23.435-10.532-31.866-16.332-16.834-11.582-49.1-46.668-49.1-53.39 0-2.332 4.238-7.02 9.419-10.411 9.22-6.04 9.733-5.887 24.322 7.293 19.333 17.466 37.15 24.744 60.702 24.796 21.1.047 46.516-12.184 59.43-28.602 3.981-5.061 8.476-9.201 9.991-9.201 2.929 0 42.07 32.21 46.854 38.551 4.608 6.115-33.56 37.981-55.18 46.07-23.382 8.748-51.738 9.214-74.57 1.225m1.294-82.29c-9.829-10.35-18.332-20.08-18.896-21.624-.564-1.544 7.452-10.736 17.813-20.428l18.839-17.622 19.595 19.352c10.778 10.644 18.708 21.2 17.624 23.458-1.084 2.258-9.876 11.21-19.538 19.894l-17.566 15.788-17.871-18.818" opacity=".25"/><path d="m181.09 528.02c-30.921-8.07-57.651-24.22-82.79-50.03-40.04-41.1-61.903-85.09-74.852-150.58-7.386-37.35-7.398-38.26-.597-43.23 13.933-10.188 19.44-6.516 24.11 16.08 24.358 117.74 100.66 194.28 174.89 175.44 22.14-5.621 43.26-26.874 49.612-49.924 8.192-29.721-6.24-81.08-31.33-111.48l-8.915-10.804-15.07 15.529c-15.937 16.422-35.578 29.958-43.503 29.981-4.765.014-26.521-43.991-26.521-53.643 0-2.827 10.348-9.87 22.996-15.653 35.494-16.227 50.591-34.504 50.591-61.25 0-17.403-3.068-23.472-14.981-29.632-15.339-7.932-40.879-6.575-71.833 3.815-15.07 5.059-28.26 9.198-29.32 9.198-2.713 0-23.684-47.46-23.684-53.599 0-10.531 22.745-17.728 60.709-19.21 34.819-1.359 37.876-.868 56.963 9.168 23.988 12.613 41.822 34.451 49.644 60.792 6.38 21.483 7.298 49.45 2.075 63.19-5.563 14.632 1.512 14.746 20.401.328 20.638-15.754 34.599-21.927 57.27-25.327 16.349-2.452 17.16-3.165 21.623-19.12 10.662-38.08 38.902-60.56 76.76-61.1 28.26-.401 44.14 5.409 60.45 22.11 21.525 22.04 29.23 48.654 31.11 107.39 2.331 72.911-7.461 112.32-35.979 144.8-24.581 27.997-63.25 38.34-93.42 24.999-25.461-11.262-32.18-28.738-35.1-91.33-1.877-40.21-3.442-49.771-9.179-56.11-8.877-9.809-14.329-9.583-38.33 1.591l-19.679 9.161 7.897 11.959c51.3 77.69 40.679 162.3-23.97 190.89-20.36 9.01-64.3 11.798-88.06 5.596m265.91-131.19c26.525-16.17 44.09-61.63 40.24-104.13-2.519-27.781-18.692-60.53-35.34-71.55-22.534-14.922-53.49-10.01-73.78 11.708l-9.01 9.647 7.07 11.859c5.884 9.867 7.268 20.508 8.24 63.37 1.365 60.18 1.925 63.734 12.1 76.67 9.699 12.33 32.448 13.426 50.48 2.432m-183.1-248.97c-9.1-3.182-23.435-10.532-31.866-16.332-16.834-11.582-49.1-46.668-49.1-53.39 0-2.332 4.238-7.02 9.419-10.411 9.22-6.04 9.733-5.887 24.322 7.293 19.333 17.466 37.15 24.744 60.702 24.796 21.1.047 46.516-12.184 59.43-28.602 3.981-5.061 8.476-9.201 9.991-9.201 2.929 0 42.07 32.21 46.854 38.551 4.608 6.115-33.56 37.981-55.18 46.07-23.382 8.748-51.738 9.214-74.57 1.225m1.294-82.29c-9.829-10.35-18.332-20.08-18.896-21.624-.564-1.544 7.452-10.736 17.813-20.428l18.839-17.622 19.595 19.352c10.778 10.644 18.708 21.2 17.624 23.458-1.084 2.258-9.876 11.21-19.538 19.894l-17.566 15.788-17.871-18.818"/></g></svg>
